source/img/logo-footer.svg

<svg id="logo-footer" width="102" height="35" viewBox="0 0 102 35" fill="currentColor" xmlns="http://www.w3.org/2000/svg">
<path d="M19.2204 21.5C19.1204 18.8 18.7204 16.2 18.7204 13.5C18.7204 11.3 19.1204 9.09997 18.3204 6.99997C18.3204 6.79997 18.4204 6.49997 18.4204 6.29997C18.6204 5.29997 15.1204 5.79997 14.6204 6.79997C14.3204 7.09997 14.1204 7.39997 14.2204 7.79997C14.2204 7.89997 14.3204 7.99997 14.3204 8.09997C13.6204 11.3 12.7204 14.4 11.7204 17.5C11.3204 18.7 10.8204 19.8 10.4204 21C9.82041 19.9 9.22041 18.8 8.82041 17.6C7.42041 14.2 6.22041 10.7 4.52041 7.39997C4.72041 5.89997 1.32041 5.99997 0.620408 7.39997C-0.179592 9.09997 -0.0795918 10.8 0.220408 12.6C0.520408 14.6 0.620408 16.6 0.620408 18.7C0.620408 22.7 1.02041 26.6 1.02041 30.6C0.620408 31 0.520408 31.5 0.920408 32C1.12041 32.2 1.32041 32.4 1.52041 32.5C2.52041 33.2 5.12041 32.6 5.12041 31.2C5.12041 27.1 4.82041 23 4.72041 18.8C4.72041 18.4 4.72041 18 4.72041 17.6C4.82041 17.7 4.82041 17.9 4.92041 18C5.52041 19.6 6.22041 21.2 7.12041 22.7C8.02041 24.2 8.42041 25.8 8.92041 27.4C8.72041 27.6 8.62041 27.9 8.72041 28.1C8.72041 28.3 8.82041 28.4 9.02041 28.5C9.62041 29 10.8204 28.8 11.5204 28.5C11.8204 28.4 12.1204 28.2 12.3204 28.1C12.6204 27.9 13.2204 27.4 13.0204 26.9C13.0204 26.8 12.9204 26.7 12.9204 26.6C13.4204 25.3 13.6204 24 13.9204 22.7C14.2204 21.3 14.7204 19.9 15.2204 18.6C15.3204 19.2 15.3204 19.8 15.4204 20.5C15.6204 23.1 15.4204 25.6 15.4204 28.1C15.4204 28.9 15.5204 29.7 15.6204 30.6C15.7204 30.9 16.0204 32.4 15.9204 32.5C15.1204 33 15.3204 33.6 16.1204 33.8C17.0204 34 18.2204 33.7 18.9204 33.1C20.1204 32 19.5204 30.3 19.3204 28.9C18.8204 26.5 19.3204 23.9 19.2204 21.5Z"/>
<path d="M27.6204 22.2001C27.5204 20.2001 26.8204 18.3001 26.8204 16.3001C26.8204 14.0001 27.0204 11.7001 26.6204 9.40009C26.5204 8.70009 22.5204 9.50009 22.7204 10.4001C23.0204 12.5001 22.9204 14.6001 22.9204 16.8001C22.9204 18.8001 23.4204 20.7001 23.6204 22.7001C23.9204 24.8001 23.5204 26.9001 23.7204 28.9001C23.8204 29.9001 24.5204 31.6001 23.8204 32.5001C23.4204 33.0001 25.3204 32.8001 25.4204 32.8001C26.2204 32.7001 27.2204 32.4001 27.7204 31.8001C28.4204 31.0001 27.9204 29.4001 27.8204 28.4001C27.5204 26.4001 27.7204 24.2001 27.6204 22.2001Z"/>
<path d="M43.9203 18.9C41.8203 16.1 38.0203 18.1 35.3203 17.4C33.9203 17 33.9203 15.1 33.9203 14C33.9203 12.6 33.8203 11.3 33.6203 9.90003C33.5203 8.80003 33.6203 7.80003 34.3203 7.00004C34.4203 6.90004 35.2203 6.70003 35.1203 6.70003C35.5203 6.60003 35.8203 6.60003 36.2203 6.60003C37.7203 6.50003 40.8203 6.80004 40.2203 9.10004C39.9203 10.1 43.8203 9.50004 44.1203 8.50004C45.3203 3.90004 36.8203 4.80004 34.4203 5.40004C32.2203 6.00004 29.8203 7.20004 29.6203 9.80003C29.5203 11 29.9203 12.2 29.9203 13.4C30.0203 14.8 29.7203 16.2 30.2203 17.5C31.3203 20.5 35.7203 19.1 38.0203 19.2C41.8203 19.5 40.7203 24.7 40.7203 27.1C40.7203 28.4 41.9203 30.5 40.9203 31.6C40.3203 32.3 38.9203 32.3 38.1203 32.4C37.3203 32.5 35.9203 32.7 35.4203 31.9C34.4203 30.5 35.5203 28.1 35.3203 26.5C35.2203 25.6 31.2203 26.4 31.4203 27.5C31.7203 30.1 30.0203 33.6 33.8203 34.1C36.2203 34.4 39.0203 33.9 41.3203 33.2C42.5203 32.8 43.6203 32.3 44.5203 31.4C45.5203 30.5 45.2203 29.1 44.9203 27.9C44.4203 24.8 45.8203 21.4 43.9203 18.9Z"/>
<path d="M61.3204 18.7001C61.2204 14.9001 60.6204 11.2001 60.6204 7.40009C60.6204 5.40009 56.6204 6.10009 56.6204 7.70009C56.6204 11.3001 57.1204 14.9001 57.3204 18.5001C57.3204 18.6001 57.3204 18.6001 57.3204 18.7001C55.4204 18.7001 53.4204 18.9001 51.4204 18.9001C51.6204 14.3001 50.8204 9.70009 51.0204 5.00009C51.0204 4.40009 47.1204 4.90009 47.1204 6.00009C46.9204 10.5001 47.7204 14.9001 47.6204 19.4001C47.5204 21.5001 47.4204 23.7001 47.3204 25.8001C47.3204 26.9001 47.5204 28.0001 47.6204 29.1001C47.7204 30.1001 48.1204 31.4001 47.8204 32.4001C47.6204 33.2001 51.4204 32.7001 51.7204 31.7001C52.2204 29.9001 51.5204 27.7001 51.3204 25.9001C51.1204 24.2001 51.3204 22.4001 51.4204 20.7001C53.4204 20.6001 55.5204 20.4001 57.5204 20.7001C57.6204 22.1001 57.7204 23.5001 57.8204 24.8001C57.9204 26.0001 58.0204 27.1001 58.0204 28.3001C58.0204 29.3001 58.1204 30.8001 57.8204 31.8001C57.0204 33.9001 60.9204 33.7001 61.5204 32.2001C62.2204 30.3001 62.0204 28.0001 61.9204 26.0001C61.7204 23.5001 61.3204 21.1001 61.3204 18.7001Z"/>
<path d="M78.2205 23.0999C77.3205 20.2999 75.8205 17.8999 74.6205 15.2999C75.6205 13.3999 76.6205 11.3999 77.5205 9.39992C78.3205 7.59992 78.9205 5.59992 80.6205 4.29992C81.2205 3.89992 81.2205 3.39992 80.3205 3.29992C79.4205 3.19992 78.2205 3.49992 77.5205 3.99992C76.1205 5.29992 75.1205 6.69992 74.4205 8.39992C73.5205 10.4999 72.5205 12.4999 71.5205 14.4999C71.4205 14.5999 71.4205 14.7999 71.3205 14.8999C70.8205 15.1999 70.5205 15.6999 70.7205 16.1999C69.9205 17.7999 69.1205 19.2999 68.2205 20.7999C67.9205 15.2999 67.2205 9.69992 67.0205 4.19992C67.0205 2.89992 63.0205 3.69992 63.1205 5.19992C63.3205 12.0999 64.3205 18.8999 64.4205 25.7999C64.4205 25.7999 64.4205 25.7999 64.4205 25.8999C64.1205 26.1999 64.2205 26.3999 64.5205 26.4999C64.5205 28.2999 64.4205 29.9999 64.3205 31.7999C63.8205 32.4999 64.8205 32.8999 65.4205 32.8999H65.5205C66.2205 32.8999 68.1205 32.5999 68.2205 31.4999C68.4205 29.3999 68.5205 27.2999 68.4205 25.1999C70.0205 23.4999 71.3205 21.5999 72.5205 19.5999C73.3205 21.0999 74.0205 22.5999 74.5205 24.1999C75.4205 26.8999 76.8205 29.4999 77.6205 32.1999C78.1205 33.9999 82.1205 32.8999 81.5205 31.1999C80.5205 28.3999 79.1205 25.8999 78.2205 23.0999Z"/>
<path d="M101.72 18.4999C101.52 17.6999 100.32 17.6999 99.4205 17.6999C99.4205 17.3999 99.4205 16.9999 99.4205 16.6999C99.3205 13.9999 99.2205 11.2999 99.0205 8.6999C98.8205 6.1999 97.4205 5.3999 95.0205 5.4999C92.6205 5.5999 89.8205 5.9999 87.5205 6.8999C84.9205 7.8999 83.4205 9.7999 82.9205 12.5999C82.4205 15.5999 83.1205 18.7999 83.3205 21.7999C83.5205 25.2999 83.4205 28.7999 83.4205 32.2999C83.4205 32.8999 87.3205 32.2999 87.3205 31.2999C87.3205 28.4999 87.3205 25.6999 87.3205 22.9999C87.3205 22.1999 87.2205 21.3999 87.2205 20.5999C88.6205 19.9999 90.9205 20.5999 92.3205 20.6999C93.4205 20.7999 94.5205 20.4999 95.5205 20.3999C95.5205 22.6999 95.6205 24.9999 95.7205 27.2999C95.7205 28.4999 96.2205 30.7999 95.3205 31.7999C94.9205 32.2999 96.8205 32.0999 96.9205 32.0999C97.7205 31.9999 98.7205 31.6999 99.2205 31.0999C100.12 29.9999 99.7205 27.2999 99.6205 25.9999C99.5205 24.0999 99.5205 22.1999 99.5205 20.2999C100.62 20.0999 101.92 19.3999 101.72 18.4999ZM87.1205 18.3999C87.0205 17.1999 86.9205 15.8999 86.8205 14.6999C86.6205 12.3999 86.9205 9.0999 89.1205 7.6999C89.7205 7.2999 90.8205 7.3999 91.5205 7.2999C92.5205 7.0999 93.5205 6.8999 94.3205 7.4999C95.5205 8.2999 95.2205 11.1999 95.2205 12.3999C95.2205 14.3999 95.4205 16.3999 95.5205 18.3999C94.9205 18.4999 94.4205 18.4999 93.8205 18.4999C91.5205 18.2999 89.2205 17.8999 87.1205 18.3999Z"/>
<path d="M24.2204 6.7C24.7204 6.6 25.2204 6.5 25.7204 6.2C25.8204 6.1 25.9204 6 25.9204 6C26.4204 5.7 26.9204 5.2 26.6204 4.6C26.1204 3.5 26.2204 2.4 26.2204 1.2C26.2204 0.2 25.2204 0 24.4204 0C23.7204 0.1 22.2204 0.6 22.2204 1.5C22.2204 2.5 22.1204 3.5 22.3204 4.5C22.3204 4.6 22.2204 4.7 22.2204 4.9C22.1204 5.1 22.2204 5.3 22.3204 5.5V5.6C22.3204 5.7 22.3204 5.8 22.3204 5.9C22.4204 6.1 22.5204 6.3 22.7204 6.4C23.3204 6.7 23.8204 6.7 24.2204 6.7Z"/>
</svg>

<svg id="logo-footer" width="102" height="35" fill="currentColor" xmlns="http://www.w3.org/2000/svg"><path d="M19.22 21.5c-.1-2.7-.5-5.3-.5-8 0-2.2.4-4.4-.4-6.5 0-.2.1-.5.1-.7.2-1-3.3-.5-3.8.5-.3.3-.5.6-.4 1 0 .1.1.2.1.3-.7 3.2-1.6 6.3-2.6 9.4-.4 1.2-.9 2.3-1.3 3.5-.6-1.1-1.2-2.2-1.6-3.4-1.4-3.4-2.6-6.9-4.3-10.2.2-1.5-3.2-1.4-3.9 0-.8 1.7-.7 3.4-.4 5.2.3 2 .4 4 .4 6.1 0 4 .4 7.9.4 11.9-.4.4-.5.9-.1 1.4.2.2.4.4.6.5 1 .7 3.6.1 3.6-1.3 0-4.1-.3-8.2-.4-12.4v-1.2c.1.1.1.3.2.4.6 1.6 1.3 3.2 2.2 4.7.9 1.5 1.3 3.1 1.8 4.7-.2.2-.3.5-.2.7 0 .2.1.3.3.4.6.5 1.8.3 2.5 0 .3-.1.6-.3.8-.4.3-.2.9-.7.7-1.2 0-.1-.1-.2-.1-.3.5-1.3.7-2.6 1-3.9.3-1.4.8-2.8 1.3-4.1.1.6.1 1.2.2 1.9.2 2.6 0 5.1 0 7.6 0 .8.1 1.6.2 2.5.1.3.4 1.8.3 1.9-.8.5-.6 1.1.2 1.3.9.2 2.1-.1 2.8-.7 1.2-1.1.6-2.8.4-4.2-.5-2.4 0-5-.1-7.4zm8.4.7c-.1-2-.8-3.9-.8-5.9 0-2.3.2-4.6-.2-6.9-.1-.7-4.1.1-3.9 1 .3 2.1.2 4.2.2 6.4 0 2 .5 3.9.7 5.9.3 2.1-.1 4.2.1 6.2.1 1 .8 2.7.1 3.6-.4.5 1.5.3 1.6.3.8-.1 1.8-.4 2.3-1 .7-.8.2-2.4.1-3.4-.3-2-.1-4.2-.2-6.2zm16.3-3.3c-2.1-2.8-5.9-.8-8.6-1.5-1.4-.4-1.4-2.3-1.4-3.4 0-1.4-.1-2.7-.3-4.1-.1-1.1 0-2.1.7-2.9.1-.1.9-.3.8-.3.4-.1.7-.1 1.1-.1 1.5-.1 4.6.2 4 2.5-.3 1 3.6.4 3.9-.6 1.2-4.6-7.3-3.7-9.7-3.1-2.2.6-4.6 1.8-4.8 4.4-.1 1.2.3 2.4.3 3.6.1 1.4-.2 2.8.3 4.1 1.1 3 5.5 1.6 7.8 1.7 3.8.3 2.7 5.5 2.7 7.9 0 1.3 1.2 3.4.2 4.5-.6.7-2 .7-2.8.8-.8.1-2.2.3-2.7-.5-1-1.4.1-3.8-.1-5.4-.1-.9-4.1-.1-3.9 1 .3 2.6-1.4 6.1 2.4 6.6 2.4.3 5.2-.2 7.5-.9 1.2-.4 2.3-.9 3.2-1.8 1-.9.7-2.3.4-3.5-.5-3.1.9-6.5-1-9zm17.4-.2c-.1-3.8-.7-7.5-.7-11.3 0-2-4-1.3-4 .3 0 3.6.5 7.2.7 10.8v.2c-1.9 0-3.9.2-5.9.2.2-4.6-.6-9.2-.4-13.9 0-.6-3.9-.1-3.9 1-.2 4.5.6 8.9.5 13.4-.1 2.1-.2 4.3-.3 6.4 0 1.1.2 2.2.3 3.3.1 1 .5 2.3.2 3.3-.2.8 3.6.3 3.9-.7.5-1.8-.2-4-.4-5.8-.2-1.7 0-3.5.1-5.2 2-.1 4.1-.3 6.1 0 .1 1.4.2 2.8.3 4.1.1 1.2.2 2.3.2 3.5 0 1 .1 2.5-.2 3.5-.8 2.1 3.1 1.9 3.7.4.7-1.9.5-4.2.4-6.2-.2-2.5-.6-4.9-.6-7.3zm16.9 4.4c-.9-2.8-2.4-5.2-3.6-7.8 1-1.9 2-3.9 2.9-5.9.8-1.8 1.4-3.8 3.1-5.1.6-.4.6-.9-.3-1-.9-.1-2.1.2-2.8.7-1.4 1.3-2.4 2.7-3.1 4.4-.9 2.1-1.9 4.1-2.9 6.1-.1.1-.1.3-.2.4-.5.3-.8.8-.6 1.3-.8 1.6-1.6 3.1-2.5 4.6-.3-5.5-1-11.1-1.2-16.6 0-1.3-4-.5-3.9 1 .2 6.9 1.2 13.7 1.3 20.6v.1c-.3.3-.2.5.1.6 0 1.8-.1 3.5-.2 5.3-.5.7.5 1.1 1.1 1.1h.1c.7 0 2.6-.3 2.7-1.4.2-2.1.3-4.2.2-6.3 1.6-1.7 2.9-3.6 4.1-5.6.8 1.5 1.5 3 2 4.6.9 2.7 2.3 5.3 3.1 8 .5 1.8 4.5.7 3.9-1-1-2.8-2.4-5.3-3.3-8.1zm23.5-4.6c-.2-.8-1.4-.8-2.3-.8v-1c-.1-2.7-.2-5.4-.4-8-.2-2.5-1.6-3.3-4-3.2-2.4.1-5.2.5-7.5 1.4-2.6 1-4.1 2.9-4.6 5.7-.5 3 .2 6.2.4 9.2.2 3.5.1 7 .1 10.5 0 .6 3.9 0 3.9-1V23c0-.8-.1-1.6-.1-2.4 1.4-.6 3.7 0 5.1.1 1.1.1 2.2-.2 3.2-.3 0 2.3.1 4.6.2 6.9 0 1.2.5 3.5-.4 4.5-.4.5 1.5.3 1.6.3.8-.1 1.8-.4 2.3-1 .9-1.1.5-3.8.4-5.1-.1-1.9-.1-3.8-.1-5.7 1.1-.2 2.4-.9 2.2-1.8zm-14.6-.1c-.1-1.2-.2-2.5-.3-3.7-.2-2.3.1-5.6 2.3-7 .6-.4 1.7-.3 2.4-.4 1-.2 2-.4 2.8.2 1.2.8.9 3.7.9 4.9 0 2 .2 4 .3 6-.6.1-1.1.1-1.7.1-2.3-.2-4.6-.6-6.7-.1zM24.22 6.7c.5-.1 1-.2 1.5-.5l.2-.2c.5-.3 1-.8.7-1.4-.5-1.1-.4-2.2-.4-3.4 0-1-1-1.2-1.8-1.2-.7.1-2.2.6-2.2 1.5 0 1-.1 2 .1 3 0 .1-.1.2-.1.4-.1.2 0 .4.1.6v.4c.1.2.2.4.4.5.6.3 1.1.3 1.5.3z"/></svg>
